assets/Logo/MB--Logo--CombH-Circle--Black.svg

<svg height="660" viewBox="0 0 2750 660" width="2750" xmlns="http://www.w3.org/2000/svg"><g fill="none" fill-rule="evenodd"><path d="m1016.26 196.1h26.6v267.9h-54.72v-148.2l-82.84 116.28-83.22-116.28v148.2h-54.34v-267.9h26.6l110.96 153.52zm232.56 61.56h52.82v206.34h-52.82v-15.2c-17.1 11.4-37.62 18.24-60.42 18.24-64.6 0-102.6-52.06-102.6-106.78 0-55.1 38-106.78 102.6-106.78 21.66 0 42.94 6.84 60.42 17.1zm0 144.4v-82.84c-12.92-11.02-31.16-17.86-50.92-17.86-37.62 0-61.18 28.12-61.18 58.9 0 31.16 23.94 59.28 61.18 59.28 20.14 0 38-6.46 50.92-17.48zm88.92 45.22 19.76-39.14c25.46 11.02 44.84 16.72 70.68 16.72 24.32 0 33.82-9.12 33.82-19.76 0-11.78-11.78-17.1-43.7-23.94-44.46-9.88-76.76-24.32-76.76-64.22 0-37.24 30.78-63.08 78.66-63.08 32.3 0 58.14 7.6 80.56 16.72l-17.48 38.76c-20.14-7.6-43.7-13.3-64.22-13.3-20.14 0-30.4 7.22-30.4 18.24 0 11.4 12.54 16.72 45.6 23.56 47.88 9.88 75.62 26.6 75.62 64.22 0 39.14-30.02 64.98-82.84 64.98-35.72 0-58.9-4.94-89.3-19.76zm337.06-109.06 76.38 125.78h-58.52l-52.82-84.36-39.9 38.38v45.98h-52.82v-286.52h52.82v168.72l88.16-88.54h61.94zm215.46-84.36c57.76 0 104.5 42.18 104.5 106.78 0 63.46-46.74 106.78-104.5 106.78-21.66 0-42.94-6.08-60.04-16.34v12.92h-52.82v-286.52h52.82v91.96c17.48-9.5 38-15.58 60.04-15.58zm-9.5 165.68c35.72 0 61.94-23.94 61.94-58.9 0-33.82-26.22-59.28-61.94-59.28-20.14 0-37.62 6.84-50.54 17.48v82.84c12.92 11.02 30.78 17.86 50.54 17.86zm254.6-165.68c62.32 0 112.86 47.5 112.86 106.78 0 58.9-50.54 106.4-112.86 106.4s-112.86-47.5-112.86-106.4c0-59.28 50.54-106.78 112.86-106.78zm0 165.68c33.82 0 60.8-26.6 60.8-58.9 0-32.68-26.98-59.28-60.8-59.28-33.44 0-60.8 26.6-60.8 59.28 0 32.3 27.36 58.9 60.8 58.9zm253.08-165.68c62.32 0 112.86 47.5 112.86 106.78 0 58.9-50.54 106.4-112.86 106.4s-112.86-47.5-112.86-106.4c0-59.28 50.54-106.78 112.86-106.78zm0 165.68c33.82 0 60.8-26.6 60.8-58.9 0-32.68-26.98-59.28-60.8-59.28-33.44 0-60.8 26.6-60.8 59.28 0 32.3 27.36 58.9 60.8 58.9zm278.54-81.32 76.38 125.78h-58.52l-52.82-84.36-39.9 38.38v45.98h-52.82v-286.52h52.82v168.72l88.16-88.54h61.94z" fill="#000" fill-rule="nonzero"/><g transform="translate(30 30)"><circle cx="300" cy="300" fill="#000" r="315" stroke="#fff" stroke-width="30"/><path d="m480 230v100h-300v.001l-12.907363.000293c13.6612 60.675936 67.877706 105.998707 132.679911 105.998707 53.574191 0 99.91317-30.977625 122.082198-75.998136l58.145254-.000864v83.999c0 19.882251-16.117749 36-36 36h-288c-19.882251 0-36-16.117749-36-36v-214zm-92.673507 130.00167c-19.091757 27.912627-51.183733 46.229933-87.553945 46.229933s-68.462188-18.317306-87.553945-46.229933zm-164.326493-106.00167c-28.211891 0-51.551244 20.861818-55.432937 48.000334l30.686759.000209c3.374064-10.445337 13.177814-18.000543 24.746178-18.000543s21.372114 7.555206 24.746178 18.000543l30.686759-.000209c-3.881693-27.138516-27.221046-48.000334-55.432937-48.000334zm154 0c-28.211891 0-51.551244 20.861818-55.432937 48.000334l30.686759.000209c3.374064-10.445337 13.177814-18.000543 24.746178-18.000543s21.372114 7.555206 24.746178 18.000543l30.686759-.000209c-3.881693-27.138516-27.221046-48.000334-55.432937-48.000334zm67-134c19.882251 0 36 16.117749 36 36v44h-360v-44c0-19.882251 16.117749-36 36-36z" fill="#fff"/></g></g></svg>

<?xml version="1.0" encoding="UTF-8"?>
<svg width="2750px" height="660px" viewBox="0 0 2750 660" version="1.1" xmlns="http://www.w3.org/2000/svg" xmlns:xlink="http://www.w3.org/1999/xlink">
    <!-- Generator: Sketch 57.1 (83088) - https://sketch.com -->
    <title>MB--Logo--CombH-Circle--Black</title>
    <desc>Created with Sketch.</desc>
    <g id="MB--Logo--CombH-Circle--Black" stroke="none" stroke-width="1" fill="none" fill-rule="evenodd">
        <path d="M1016.26,196.1 L1042.86,196.1 L1042.86,464 L988.14,464 L988.14,315.8 L905.3,432.08 L822.08,315.8 L822.08,464 L767.74,464 L767.74,196.1 L794.34,196.1 L905.3,349.62 L1016.26,196.1 Z M1248.82,257.66 L1301.64,257.66 L1301.64,464 L1248.82,464 L1248.82,448.8 C1231.72,460.2 1211.2,467.04 1188.4,467.04 C1123.8,467.04 1085.8,414.98 1085.8,360.26 C1085.8,305.16 1123.8,253.48 1188.4,253.48 C1210.06,253.48 1231.34,260.32 1248.82,270.58 L1248.82,257.66 Z M1248.82,402.06 L1248.82,319.22 C1235.9,308.2 1217.66,301.36 1197.9,301.36 C1160.28,301.36 1136.72,329.48 1136.72,360.26 C1136.72,391.42 1160.66,419.54 1197.9,419.54 C1218.04,419.54 1235.9,413.08 1248.82,402.06 Z M1337.74,447.28 L1357.5,408.14 C1382.96,419.16 1402.34,424.86 1428.18,424.86 C1452.5,424.86 1462,415.74 1462,405.1 C1462,393.32 1450.22,388 1418.3,381.16 C1373.84,371.28 1341.54,356.84 1341.54,316.94 C1341.54,279.7 1372.32,253.86 1420.2,253.86 C1452.5,253.86 1478.34,261.46 1500.76,270.58 L1483.28,309.34 C1463.14,301.74 1439.58,296.04 1419.06,296.04 C1398.92,296.04 1388.66,303.26 1388.66,314.28 C1388.66,325.68 1401.2,331 1434.26,337.84 C1482.14,347.72 1509.88,364.44 1509.88,402.06 C1509.88,441.2 1479.86,467.04 1427.04,467.04 C1391.32,467.04 1368.14,462.1 1337.74,447.28 Z M1674.8,338.22 L1751.18,464 L1692.66,464 L1639.84,379.64 L1599.94,418.02 L1599.94,464 L1547.12,464 L1547.12,177.48 L1599.94,177.48 L1599.94,346.2 L1688.1,257.66 L1750.04,257.66 L1674.8,338.22 Z M1890.26,253.86 C1948.02,253.86 1994.76,296.04 1994.76,360.64 C1994.76,424.1 1948.02,467.42 1890.26,467.42 C1868.6,467.42 1847.32,461.34 1830.22,451.08 L1830.22,464 L1777.4,464 L1777.4,177.48 L1830.22,177.48 L1830.22,269.44 C1847.7,259.94 1868.22,253.86 1890.26,253.86 Z M1880.76,419.54 C1916.48,419.54 1942.7,395.6 1942.7,360.64 C1942.7,326.82 1916.48,301.36 1880.76,301.36 C1860.62,301.36 1843.14,308.2 1830.22,318.84 L1830.22,401.68 C1843.14,412.7 1861,419.54 1880.76,419.54 Z M2135.36,253.86 C2197.68,253.86 2248.22,301.36 2248.22,360.64 C2248.22,419.54 2197.68,467.04 2135.36,467.04 C2073.04,467.04 2022.5,419.54 2022.5,360.64 C2022.5,301.36 2073.04,253.86 2135.36,253.86 Z M2135.36,419.54 C2169.18,419.54 2196.16,392.94 2196.16,360.64 C2196.16,327.96 2169.18,301.36 2135.36,301.36 C2101.92,301.36 2074.56,327.96 2074.56,360.64 C2074.56,392.94 2101.92,419.54 2135.36,419.54 Z M2388.44,253.86 C2450.76,253.86 2501.3,301.36 2501.3,360.64 C2501.3,419.54 2450.76,467.04 2388.44,467.04 C2326.12,467.04 2275.58,419.54 2275.58,360.64 C2275.58,301.36 2326.12,253.86 2388.44,253.86 Z M2388.44,419.54 C2422.26,419.54 2449.24,392.94 2449.24,360.64 C2449.24,327.96 2422.26,301.36 2388.44,301.36 C2355,301.36 2327.64,327.96 2327.64,360.64 C2327.64,392.94 2355,419.54 2388.44,419.54 Z M2666.98,338.22 L2743.36,464 L2684.84,464 L2632.02,379.64 L2592.12,418.02 L2592.12,464 L2539.3,464 L2539.3,177.48 L2592.12,177.48 L2592.12,346.2 L2680.28,257.66 L2742.22,257.66 L2666.98,338.22 Z" id="Maskbook" fill="#000000" fill-rule="nonzero"></path>
        <g id="Group" transform="translate(30.000000, 30.000000)">
            <circle id="Oval" stroke="#FFFFFF" stroke-width="30" fill="#000000" cx="300" cy="300" r="315"></circle>
            <path d="M480,230 L480,330 L180,330 L180,330.001 L167.092637,330.001293 C180.753837,390.677229 234.970343,436 299.772548,436 C353.346739,436 399.685718,405.022375 421.854746,360.001864 L421.854746,360.001864 L480,360.001 L480,444 C480,463.882251 463.882251,480 444,480 L156,480 C136.117749,480 120,463.882251 120,444 L120,230 L480,230 Z M387.326493,360.00167 C368.234736,387.914297 336.14276,406.231603 299.772548,406.231603 C263.402336,406.231603 231.31036,387.914297 212.218603,360.00167 L212.218603,360.00167 Z M223,254 C194.788109,254 171.448756,274.861818 167.567063,302.000334 L167.567063,302.000334 L198.253822,302.000543 C201.627886,291.555206 211.431636,284 223,284 C234.568364,284 244.372114,291.555206 247.746178,302.000543 L247.746178,302.000543 L278.432937,302.000334 C274.551244,274.861818 251.211891,254 223,254 Z M377,254 C348.788109,254 325.448756,274.861818 321.567063,302.000334 L321.567063,302.000334 L352.253822,302.000543 C355.627886,291.555206 365.431636,284 377,284 C388.568364,284 398.372114,291.555206 401.746178,302.000543 L401.746178,302.000543 L432.432937,302.000334 C428.551244,274.861818 405.211891,254 377,254 Z M444,120 C463.882251,120 480,136.117749 480,156 L480,200 L120,200 L120,156 C120,136.117749 136.117749,120 156,120 L444,120 Z" id="maskbook-icon--book--black" fill="#FFFFFF"></path>
        </g>
    </g>
</svg>
